X: 809
T: Gelirken Meclise Yârim Gücendi
C: Haham Nesim Sivilya
O: Turkey
F: http://compmusic.upf.edu/node/140
N: isfahan--sarki--duyek--gelirken_meclise--haham_nesim
N: makam= isfahan
N: form= sarki
N: usul= duyek = 8/4
M: 8/4
L: 1/16
K: C _2/4B   
Q: 1/4=132
%%MIDI tuningsystem comma53
dc de d2 e2 ef ed eg fe  | ed ^cd c2 d2 e^3/4f ga ^2/4fe d2  | 
w:  ARANAĞME  |   | 
ef ed dc cd (3cBA Bc B2 d2  | de dc cd cB B/A/B/c/ BA A2 z2  | 
w:   |   | 
dc de d2 e2 ef ed eg fe  | ed ^cd c2 d2 e^3/4f ga ^2/4fe d2  | 
w:  ARANAĞME  |   | 
ef ed dc cd (3cBA Bc B2 d2  | de dc cd cB B/A/B/c/ BA A2 z2  | 
w:   |   | 
c2 d4 ef ed cB cd cd  | c2 Bc d2 ef ag fe (3ed^c d2  | 
w:  Ge lir *  *  ken  *  *  *  mec  |  li *  *  se  *  *  yâ *  *  *  rim   | 
a2 ag ^3/4f2 ef ag ^1/4fe d2 cB  | \
w:  gü *  *  cen *  *  di   | 
g2 fe d2 ef ed ^ce d2 z2  | 
w:  gü *  *  cen *  *  di    | 
d2 e2 ef ef g3/2_b/ ag fe d2  | cd ef g3/2_b/ ag fe d^c d2 z2  | 
w:  Gö nül *  *  *  *  de  *  *  *  dağ_  |  ı  *  *  *  has *  *  *  ret  *  *  *  tâ  | 
^1/4f2 fe ed e2 (3cBA Bc B2 z2  | \
w:  ze *  *  len *  *  di   | 
e2 dc cB BA Ac2B A2 z2  | 
w:  ze *  *  len *  *  *  di    | 
d2 ^3/4f4 f2 g/f/g/a/ gf ^2/4fe d2  | \
w:  Bü tün  *  gün  *  *  *  *  *  bek  | 
d2 ed a2 g^3/4f fe ed d2 z2  | 
w:  le *  *  dim  *  *  ol  *  *  *  dil   | 
a2 ag ^3/4f2 ef ag =fe d2 cB  | g2 fe d2 ef ed ^ce d2 z2  | 
w:  pe *  *  sen *  *  di   |  pe *  *  sen *  *  di    | 
d2 e2 ef ef g3/2_b/ ag fe d2  | cd ef g3/2_b/ ag fe d^c d2 z2  | 
w:  Gö nül *  *  *  *  de  *  *  *  dağ_  |  ı  *  *  *  has *  *  *  ret  *  *  *  tâ  | 
^1/4f2 fe ed e2 (3cBA Bc B2 z2  | \
w:  ze *  *  len *  *  di   | 
e2 dc cB BA Ac2B A2 z2  | 
w:  ze *  *  len *  *  *  di    | 
|


